X: 3162
T: FISHERS WEDDING
Q: "Reel."
R: Reel.
%R: reel
B: James Kerr "Merry Melodies" v.3 p.19 #162
Z: 2016 John Chambers <jc:trillian.mit.edu>
M: C
L: 1/8
K: F
uC |\
F2(Ac) dcAc | (cF)(dF) AGGA |\
F2(Ac) dcde | fcag f3 ::\
c |\
fc=Bc d_BAB | dBba gfed |\
cAag fdcA | BGcA F3 :|

%%sep 1 1 500
%%sep 1 1 500

